X: 17178
T: Hennessy & Kerr
R: jig
M: 6/8
K: Adorian
|:~A3 ABd|edB g2f|edB Agf|edB BAG|
~A3 ABd|edB g2a|bag eag|1 edB A2G:|2 edB A2f||
|:~g3 gfg|aba aef|ged Bgf|edB A2f|
~g3 gfg|aba aga|bag eag|1 edB A2f:|2 edB A2G||

